packages/swarm-icons/src/icons/large/Bookmark.svg

<svg xmlns="http://www.w3.org/2000/svg" width="28" height="28" viewBox="0 0 28 28">
  <path fill="#212121" d="M15,12 L15,14 C15,14.5522847 14.5522847,15 14,15 C13.4477153,15 13,14.5522847 13,14 L13,12 L11,12 C10.4477153,12 10,11.5522847 10,11 C10,10.4477153 10.4477153,10 11,10 L13,10 L13,8 C13,7.44771525 13.4477153,7 14,7 C14.5522847,7 15,7.44771525 15,8 L15,10 L17,10 C17.5522847,10 18,10.4477153 18,11 C18,11.5522847 17.5522847,12 17,12 L15,12 Z M14,18.9544613 L7.67480093,24.7379998 C7.03310282,25.3247459 6,24.8695099 6,24 L6,5 C6,3.8954305 6.8954305,3 8,3 L20,3 C21.1045695,3 22,3.8954305 22,5 L22,24 C22,24.8695099 20.9668972,25.3247459 20.3251991,24.7379998 L14,18.9544613 Z M20,21.7306214 L20,5 L8,5 L8,21.7306214 L13.3251991,16.8614476 C13.7072497,16.512114 14.2927503,16.512114 14.6748009,16.8614476 L20,21.7306214 Z"/>
</svg>

<svg xmlns="http://www.w3.org/2000/svg" width="28" height="28"><path fill="#212121" d="M15 12v2a1 1 0 01-2 0v-2h-2a1 1 0 010-2h2V8a1 1 0 012 0v2h2a1 1 0 010 2h-2zm-1 6.954l-6.325 5.784C7.033 25.325 6 24.87 6 24V5a2 2 0 012-2h12a2 2 0 012 2v19c0 .87-1.033 1.325-1.675.738L14 18.954zm6 2.777V5H8v16.73l5.325-4.869a1 1 0 011.35 0L20 21.731z"/></svg>
